RestoDelMundo/Paises Bajos/Otras Categorias/Vv Kloetinge.svg

<svg xmlns="http://www.w3.org/2000/svg" viewBox="0 0 612 792"><path d="M563.804 222.836c-71.539-27.901-163.693-50.293-256.304-50.307-92.61.014-184.764 22.406-256.303 50.307l-4.292 1.673.255 4.599c4.22 75.645 35.614 161.021 81.909 240.601 46.328 79.564 107.607 153.278 172.251 205.144l.11.087 6.07 4.45 6.064-4.445.116-.092c64.645-51.865 125.924-125.579 172.251-205.144 46.295-79.58 77.687-164.956 81.908-240.601l.255-4.599z"/><path fill="#fff" d="M474.947 463.315C429.803 540.888 370 612.949 307.5 663.509c-62.501-50.559-122.302-122.621-167.447-200.193-44.638-76.638-74.915-158.707-79.913-230.309 69.626-26.637 158.654-47.779 247.36-47.767 88.706-.012 177.734 21.13 247.361 47.767-4.999 71.602-35.275 153.671-79.914 230.308"/><path fill="#fdb913" d="M307.501 218.943c84.538 0 174.804 24.826 206.606 37.561-24.7 170.955-123.208 306.025-203.895 370.174l-2.711 2.012-2.711-2.012C224.102 562.53 125.594 427.46 100.895 256.505c31.802-12.735 122.067-37.562 206.606-37.562"/><path d="m83.024 150.652 22.278 32.185.587-39.029 9.298-2.805-1.593 49.343-11.209 3.363-29.166-40.133ZM131.61 136.993l20.22 33.536 3.041-38.943 9.444-2.189-4.692 49.138-11.407 2.657-26.573-41.879ZM188.81 124.875l9.475-1.382 2.952 20.124 13.941-22.606 11.583-1.705-15.873 24.238 23.907 21.887-12.5 1.821-20.505-19.83 3.282 22.356-9.475 1.412ZM235.942 118.395l9.541-.866 3.443 38.56 18.142-1.632.72 8.08-27.675 2.469ZM314.889 137.227c.413 15.558-7.771 24.899-22.195 25.296-14.219.381-23.121-8.549-23.525-23.635-.44-15.688 7.756-25.089 22.247-25.486 14.219-.384 23.032 8.607 23.473 23.825m-35.496 1.175c.287 10.636 5.193 16.893 13.162 16.673 7.836-.205 12.383-6.786 12.097-17.495-.301-10.636-5.251-16.951-13.103-16.73-7.838.22-12.458 6.858-12.156 17.552M323.731 114.517l27.764 1.191-.351 8.093-18.188-.764-.468 10.562 16.744.705-.337 8.109-16.747-.705-.513 11.868 18.538.808-.354 8.095-28.084-1.19ZM358.986 116.148l36.063 3.628-.808 8.079-13.307-1.351-3.893 38.516-9.521-.969 3.878-38.502-13.219-1.336ZM402.719 121.011l9.473 1.365-6.67 46.331-9.459-1.365ZM421.447 123.581l11.942 2.276 11.016 35.432 6.097-32.185 9.401 1.778-8.725 45.978-11.546-2.175-11.253-36.311-6.258 32.977-9.401-1.777ZM481.702 184.528c-15.659-4.011-22.254-14.396-18.478-29.16 3.892-15.262 15.762-21.152 33.55-16.614 3.261.838 4.995 1.411 8.169 2.91l-1.911 7.476c-2.732-1.381-3.996-1.852-7.463-2.733-6.581-1.689-11.663-1.395-15.335.881-3.334 2.102-5.743 5.597-6.962 10.371-1.205 4.702-.853 9.195 1.058 12.486 1.953 3.38 5.2 5.45 10.736 6.861l2.277.514 1.027.264 2.615-10.239-8.372-2.143 1.806-7.081 16.703 4.261-6.008 23.444c-3.453.425-7.932-.103-13.412-1.498M515.636 145.249l26.513 8.373-2.453 7.726-17.377-5.479-3.173 10.077 15.966 5.053-2.437 7.727-15.982-5.053-3.585 11.353 17.702 5.583-2.454 7.726-26.824-8.46Z"/><path fill="#fff" d="M290.858 580.333h2.423v13.764h-2.812v-10.649l-2.725 2.145-1.389-1.809ZM299.158 592.158c2.358 0 3.458-1.145 3.79-3.966l-2.682 1.292c-2.452 0-4.061-1.85-4.061-4.715 0-2.981 1.719-4.743 4.605-4.743 3.312 0 4.855 2.13 4.855 6.668 0 2.467-.382 4.172-1.263 5.464-1.079 1.631-2.401 2.263-4.781 2.263l-2.239-.308-.229-.06v-2.173zm-.111-7.566c0 1.692.698 2.66 1.879 2.66 1.19 0 1.852-.969 1.852-2.732 0-1.425-.691-2.291-1.865-2.291-1.168 0-1.866.866-1.866 2.363M308.103 591.924l2.556.323c2.115 0 3.188-.72 3.188-2.115 0-1.278-1.044-1.983-3.07-1.983h-.852v-2.277h.765c1.996 0 3.083-.691 3.083-1.953 0-1.058-.837-1.632-2.409-1.632l-2.819.384v-2.293l.294-.058 2.789-.293c3.394 0 5.1 1.232 5.1 3.701 0 1.675-.751 2.613-2.453 3.113 1.615.19 2.57 1.47 2.57 3.468 0 2.731-1.97 4.082-5.95 4.082l-2.79-.25v-2.217zM323.585 580.333h2.439v13.764h-2.82v-10.649l-2.733 2.145-1.381-1.809Z"/><path fill="#0079c1" d="M259.999 467.944c-12.743-.014-26.383 23.782-26.397 25.603 12.722-2.688 35.585-1.308 43.797 9.565 8.483 11.223 18.098 40.394 1.308 58.419h8.124c24.265-38.471 2.709-93.571-26.832-93.587M355.002 467.944c-29.54.016-51.096 55.115-26.829 93.587h8.122c-16.789-18.024-7.175-47.196 1.308-58.419 8.212-10.872 31.075-12.252 43.798-9.565-.015-1.82-13.656-25.616-26.399-25.603"/><path fill="#0079c1" d="m337.31 441.636-29.809-38.398-29.808 38.398s43.76 87.917 19.346 119.895h20.924c-24.414-31.978 19.347-119.895 19.347-119.895M342.245 326.86c-12.743-.014-26.383 23.782-26.398 25.603 12.722-2.687 35.586-1.308 43.798 9.565 8.483 11.223 18.098 40.395 1.308 58.419h8.123c24.265-38.472 2.709-93.572-26.831-93.587M437.246 326.86c-29.539.016-51.096 55.115-26.829 93.587h8.122c-16.789-18.024-7.174-47.197 1.309-58.419 8.211-10.872 31.075-12.251 43.798-9.565-.016-1.821-13.656-25.617-26.4-25.603"/><path fill="#0079c1" d="m419.555 300.552-29.809-38.398-29.809 38.398s43.76 87.917 19.347 119.896h20.923c-24.413-31.98 19.348-119.896 19.348-119.896M272.757 326.86c12.743-.014 26.382 23.782 26.397 25.603-12.722-2.687-35.585-1.308-43.797 9.565-8.483 11.223-18.098 40.395-1.308 58.419h-8.123c-24.264-38.472-2.709-93.572 26.831-93.587M177.755 326.86c29.54.016 51.096 55.115 26.83 93.587h-8.123c16.79-18.024 7.175-47.197-1.308-58.419-8.212-10.872-31.075-12.251-43.798-9.565.016-1.821 13.656-25.617 26.399-25.603"/><path fill="#0079c1" d="m195.448 300.552 29.809-38.398 29.808 38.398s-43.76 87.917-19.346 119.896h-20.923c24.412-31.98-19.348-119.896-19.348-119.896"/></svg>

<svg enable-background="new 0 0 612 792" viewBox="0 0 612 792" xmlns="http://www.w3.org/2000/svg"><path d="M 563.804 222.836 c -71.539 -27.901 -163.693 -50.293 -256.304 -50.307 c -92.61 .014 -184.764 22.406 -256.303 50.307 l -4.292 1.673 l .255 4.599 c 4.22 75.645 35.614 161.021 81.909 240.601 c 46.328 79.564 107.607 153.278 172.251 205.144 l .11 .087 l 6.07 4.45 l 6.064 -4.445 l .116 -.092 c 64.645 -51.865 125.924 -125.579 172.251 -205.144 c 46.295 -79.58 77.687 -164.956 81.908 -240.601 l .255 -4.599 L 563.804 222.836 z"/><path d="M 474.947 463.315 C 429.803 540.888 370 612.949 307.5 663.509 c -62.501 -50.559 -122.302 -122.621 -167.447 -200.193 C 95.415 386.678 65.138 304.609 60.14 233.007 c 69.626 -26.637 158.654 -47.779 247.36 -47.767 c 88.706 -.012 177.734 21.13 247.361 47.767 C 549.862 304.609 519.586 386.678 474.947 463.315 z" fill="#fff"/><path d="M 307.501 218.943 c 84.538 0 174.804 24.826 206.606 37.561 c -24.7 170.955 -123.208 306.025 -203.895 370.174 l -2.711 2.012 l -2.711 -2.012 C 224.102 562.53 125.594 427.46 100.895 256.505 C 132.697 243.77 222.962 218.943 307.501 218.943 z" fill="#fdb913"/><path d="M 83.024 150.652 L 105.302 182.837 L 105.889 143.808 L 115.187 141.003 L 113.594 190.346 L 102.385 193.709 L 73.219 153.576 Z"/><path d="M 131.61 136.993 L 151.83 170.529 L 154.871 131.586 L 164.315 129.397 L 159.623 178.535 L 148.216 181.192 L 121.643 139.313 Z"/><path d="M 188.81 124.875 L 198.285 123.493 L 201.237 143.617 L 215.178 121.011 L 226.761 119.306 L 210.888 143.544 L 234.795 165.431 L 222.295 167.252 L 201.79 147.422 L 205.072 169.778 L 195.597 171.19 Z"/><path d="M 235.942 118.395 L 245.483 117.529 L 248.926 156.089 L 267.068 154.457 L 267.788 162.537 L 240.113 165.006 Z"/><path d="M 314.889 137.227 c .413 15.558 -7.771 24.899 -22.195 25.296 c -14.219 .381 -23.121 -8.549 -23.525 -23.635 c -.44 -15.688 7.756 -25.089 22.247 -25.486 C 305.635 113.018 314.448 122.009 314.889 137.227 M 279.393 138.402 c .287 10.636 5.193 16.893 13.162 16.673 c 7.836 -.205 12.383 -6.786 12.097 -17.495 c -.301 -10.636 -5.251 -16.951 -13.103 -16.73 C 283.711 121.07 279.091 127.708 279.393 138.402"/><path d="M 323.731 114.517 L 351.495 115.708 L 351.144 123.801 L 332.956 123.037 L 332.488 133.599 L 349.232 134.304 L 348.895 142.413 L 332.148 141.708 L 331.635 153.576 L 350.173 154.384 L 349.819 162.479 L 321.735 161.289 Z"/><path d="M 358.986 116.148 L 395.049 119.776 L 394.241 127.855 L 380.934 126.504 L 377.041 165.02 L 367.52 164.051 L 371.398 125.549 L 358.179 124.213 Z"/><path d="M 402.719 121.011 L 412.192 122.376 L 405.522 168.707 L 396.063 167.342 Z"/><path d="M 421.447 123.581 L 433.389 125.857 L 444.405 161.289 L 450.502 129.104 L 459.903 130.882 L 451.178 176.86 L 439.632 174.685 L 428.379 138.374 L 422.121 171.351 L 412.72 169.574 Z"/><path d="M 481.702 184.528 c -15.659 -4.011 -22.254 -14.396 -18.478 -29.16 c 3.892 -15.262 15.762 -21.152 33.55 -16.614 c 3.261 .838 4.995 1.411 8.169 2.91 l -1.911 7.476 c -2.732 -1.381 -3.996 -1.852 -7.463 -2.733 c -6.581 -1.689 -11.663 -1.395 -15.335 .881 c -3.334 2.102 -5.743 5.597 -6.962 10.371 c -1.205 4.702 -.853 9.195 1.058 12.486 c 1.953 3.38 5.2 5.45 10.736 6.861 l 2.277 .514 l 1.027 .264 l 2.615 -10.239 l -8.372 -2.143 l 1.806 -7.081 l 16.703 4.261 l -6.008 23.444 C 491.661 186.451 487.182 185.923 481.702 184.528"/><path d="M 515.636 145.249 L 542.149 153.622 L 539.696 161.348 L 522.319 155.869 L 519.146 165.946 L 535.112 170.999 L 532.675 178.726 L 516.693 173.673 L 513.108 185.026 L 530.81 190.609 L 528.356 198.335 L 501.532 189.875 Z"/><path d="M 290.858 580.333 L 293.281 580.333 L 293.281 594.097 L 290.469 594.097 L 290.469 583.448 L 287.744 585.593 L 286.355 583.784 Z" fill="#fff"/><path d="M 299.158 592.158 c 2.358 0 3.458 -1.145 3.79 -3.966 l -2.682 1.292 c -2.452 0 -4.061 -1.85 -4.061 -4.715 c 0 -2.981 1.719 -4.743 4.605 -4.743 c 3.312 0 4.855 2.13 4.855 6.668 c 0 2.467 -.382 4.172 -1.263 5.464 c -1.079 1.631 -2.401 2.263 -4.781 2.263 l -2.239 -.308 l -.229 -.06 v -2.173 L 299.158 592.158 M 299.047 584.592 c 0 1.692 .698 2.66 1.879 2.66 c 1.19 0 1.852 -.969 1.852 -2.732 c 0 -1.425 -.691 -2.291 -1.865 -2.291 C 299.745 582.229 299.047 583.095 299.047 584.592" fill="#fff"/><path d="M 308.103 591.924 l 2.556 .323 c 2.115 0 3.188 -.72 3.188 -2.115 c 0 -1.278 -1.044 -1.983 -3.07 -1.983 h -.852 v -2.277 h .765 c 1.996 0 3.083 -.691 3.083 -1.953 c 0 -1.058 -.837 -1.632 -2.409 -1.632 l -2.819 .384 v -2.293 l .294 -.058 l 2.789 -.293 c 3.394 0 5.1 1.232 5.1 3.701 c 0 1.675 -.751 2.613 -2.453 3.113 c 1.615 .19 2.57 1.47 2.57 3.468 c 0 2.731 -1.97 4.082 -5.95 4.082 l -2.79 -.25 V 591.924 z" fill="#fff"/><path d="M 323.585 580.333 L 326.024 580.333 L 326.024 594.097 L 323.204 594.097 L 323.204 583.448 L 320.471 585.593 L 319.09 583.784 Z" fill="#fff"/><path d="M 259.999 467.944 c -12.743 -.014 -26.383 23.782 -26.397 25.603 c 12.722 -2.688 35.585 -1.308 43.797 9.565 c 8.483 11.223 18.098 40.394 1.308 58.419 h 8.124 C 311.096 523.06 289.54 467.96 259.999 467.944 z" fill="#0079c1"/><path d="M 355.002 467.944 c -29.54 .016 -51.096 55.115 -26.829 93.587 h 8.122 c -16.789 -18.024 -7.175 -47.196 1.308 -58.419 c 8.212 -10.872 31.075 -12.252 43.798 -9.565 C 381.386 491.727 367.745 467.931 355.002 467.944 z" fill="#0079c1"/><path d="M 337.31 441.636 l -29.809 -38.398 l -29.808 38.398 c 0 0 43.76 87.917 19.346 119.895 h 10.462 h 10.462 C 293.549 529.553 337.31 441.636 337.31 441.636 z" fill="#0079c1"/><path d="M 342.245 326.86 c -12.743 -.014 -26.383 23.782 -26.398 25.603 c 12.722 -2.687 35.586 -1.308 43.798 9.565 c 8.483 11.223 18.098 40.395 1.308 58.419 h 8.123 C 393.341 381.975 371.785 326.875 342.245 326.86 z" fill="#0079c1"/><path d="M 437.246 326.86 c -29.539 .016 -51.096 55.115 -26.829 93.587 h 8.122 c -16.789 -18.024 -7.174 -47.197 1.309 -58.419 c 8.211 -10.872 31.075 -12.251 43.798 -9.565 C 463.63 350.642 449.99 326.846 437.246 326.86 z" fill="#0079c1"/><path d="M 419.555 300.552 l -29.809 -38.398 l -29.809 38.398 c 0 0 43.76 87.917 19.347 119.896 h 10.462 h 10.461 C 375.794 388.468 419.555 300.552 419.555 300.552 z" fill="#0079c1"/><path d="M 272.757 326.86 c 12.743 -.014 26.382 23.782 26.397 25.603 c -12.722 -2.687 -35.585 -1.308 -43.797 9.565 c -8.483 11.223 -18.098 40.395 -1.308 58.419 h -8.123 C 221.662 381.975 243.217 326.875 272.757 326.86 z" fill="#0079c1"/><path d="M 177.755 326.86 c 29.54 .016 51.096 55.115 26.83 93.587 h -8.123 c 16.79 -18.024 7.175 -47.197 -1.308 -58.419 c -8.212 -10.872 -31.075 -12.251 -43.798 -9.565 C 151.372 350.642 165.012 326.846 177.755 326.86 z" fill="#0079c1"/><path d="M 195.448 300.552 l 29.809 -38.398 l 29.808 38.398 c 0 0 -43.76 87.917 -19.346 119.896 h -10.461 h -10.462 C 239.208 388.468 195.448 300.552 195.448 300.552 z" fill="#0079c1"/></svg>
